assets/img/components/toggle-header.svg

<svg xmlns="http://www.w3.org/2000/svg" width="578" height="145" fill="none" viewBox="0 0 578 145"><path fill="#286ad8" d="M537.625 145H432.5c0-80.081 64.919-145 145-145v105.125c0 22.023-17.853 39.875-39.875 39.875M72.335 0C108.351 0 138.247 26.143 144 60.447V0h144.5l-.001.002.376-.002v105.125C288.875 127.147 271.022 145 249 145H0V0z"/><path fill="#286ad8" d="M288 0c0 91 54.5 145 145 145C433 52.5 381 0 288 0"/><path fill="#1545bb" d="M73.138 88c4.59 0 8.736 1.892 11.712 4.933l11.5 11.5q.12.117.238.237c-.008-.092-.028-.181-.028-.275a3.17 3.17 0 0 1 3.159-3.16h64.503a3.14 3.14 0 0 1 2.344 1.065q.132.118.25.25.132.118.25.25.132.118.25.25.132.118.25.25.132.118.25.25.132.118.25.25.132.118.25.25.132.118.25.25.132.118.25.25.132.118.25.25.132.118.25.25.132.118.25.25.132.118.25.25.132.118.25.25.132.118.25.25.132.118.25.25.132.118.25.25.132.118.25.25.132.118.25.25.132.118.25.25.132.118.25.25.132.118.25.25.132.118.25.25.132.118.25.25.132.118.25.25.132.118.25.25.132.118.25.25.132.118.25.25.132.118.25.25.132.118.25.25.132.118.25.25.132.118.25.25.132.118.25.25.132.118.25.25.132.118.25.25.132.118.25.25.132.118.25.25.132.118.25.25.132.118.25.25.132.118.25.25.132.118.25.25.132.118.25.25.132.118.25.25.132.118.25.25.132.118.25.25.132.118.25.25.132.118.25.25.132.118.25.25.132.118.25.25.132.118.25.25.132.118.25.25.132.118.25.25.132.118.25.25.132.118.25.25.132.118.25.25.132.118.25.25.132.118.25.25.132.118.25.25.132.118.25.25.132.118.25.25.132.118.25.25.132.118.25.25.132.118.25.25.132.118.25.25.132.118.25.25.132.118.25.25.132.118.25.25.132.118.25.25.132.118.25.25.132.118.25.25.132.118.25.25.132.118.25.25.132.118.25.25.132.118.25.25.132.118.25.25.132.118.25.25.132.118.25.25.132.118.25.25.132.118.25.25.132.118.25.25.132.118.25.25.132.118.25.25.132.118.25.25.132.118.25.25.132.118.25.25.132.118.25.25.132.118.25.25.132.118.25.25.132.118.25.25.132.118.25.25.132.118.25.25.132.118.25.25.132.118.25.25.132.118.25.25.132.118.25.25.132.118.25.25.132.118.25.25.132.118.25.25.132.118.25.25.132.118.25.25.132.118.25.25.132.118.25.25.132.118.25.25.132.118.25.25.132.118.25.25.132.118.25.25.132.118.25.25.132.118.25.25.132.118.25.25.132.118.25.25.132.118.25.25.132.118.25.25.132.118.25.25.132.118.25.25.132.118.25.25.132.118.25.25.132.118.25.25.132.118.25.25.132.118.25.25.132.118.25.25.132.118.25.25.132.118.25.25.132.118.25.25.132.118.25.25.132.118.25.25.132.118.25.25.132.118.25.25.132.118.25.25.132.118.25.25.132.118.25.25.132.118.25.25.132.118.25.25.132.118.25.25.132.118.25.25.132.118.25.25.132.118.25.25.132.118.25.25.132.118.25.25.132.118.25.25.132.118.25.25.132.118.25.25.132.118.25.25.132.118.25.25.132.118.25.25.132.118.25.25.132.118.25.25.132.118.25.25.132.118.25.25.132.118.25.25.132.118.25.25.132.118.25.25.132.118.25.25.132.118.25.25.132.118.25.25.132.118.25.25.132.118.25.25.132.118.25.25.132.118.25.25.132.118.25.25.132.118.25.25.132.118.25.25.132.118.25.25.132.118.25.25.132.118.25.25.132.118.25.25.132.118.25.25.132.118.25.25.132.118.25.25.132.118.25.25.132.118.25.25.107.095.204.2H66.828l-29.177-29.177a16.33 16.33 0 0 1-4.65-11.428C33.001 95.34 40.341 88 49.395 88z" opacity=".4" style="mix-blend-mode:multiply"/><path fill="#5187df" d="M73.138 88H49.394C40.34 88 33 95.34 33 104.394s7.34 16.394 16.394 16.394h23.744c9.054 0 16.394-7.34 16.394-16.394S82.192 88 73.138 88m0 30.527c-7.806 0-14.133-6.327-14.133-14.133s6.327-14.133 14.133-14.133S87.27 96.59 87.27 104.394c0 7.806-6.327 14.133-14.132 14.133"/><path fill="#5187df" d="M80.034 99.306q-.69 0-1.136.449l-8.033 8.074-3.49-3.507q-.445-.449-1.135-.449-.691 0-1.136.449-.446.448-.447 1.141 0 .694.447 1.142l4.625 4.649q.487.489 1.136.489t1.136-.489l9.17-9.216q.445-.448.446-1.142 0-.693-.447-1.141-.445-.45-1.136-.449M164.002 101H98.998A3.01 3.01 0 0 0 96 104c0 1.65 1.349 3 2.998 3h65.004a3.01 3.01 0 0 0 2.998-3c0-1.65-1.349-3-2.998-3"/></svg>

<svg width="578" height="145" viewBox="0 0 578 145" fill="none" xmlns="http://www.w3.org/2000/svg">
<path d="M537.625 145H432.5C432.5 64.919 497.419 0.000244141 577.5 0.000244141V105.125C577.5 127.148 559.647 145 537.625 145Z" fill="#286AD8"/>
<path d="M72.335 0C108.351 0.000236289 138.247 26.1434 144 60.4473V0H288.5L288.499 0.00195312C288.624 0.00163595 288.75 0 288.875 0V105.125C288.875 127.147 271.022 145 249 145H0V0H72.335Z" fill="#286AD8"/>
<path d="M288 0.000244141C288 91.0002 342.5 145 433 145C433 52.5002 381 0.000244141 288 0.000244141Z" fill="#286AD8"/>
<g style="mix-blend-mode:multiply" opacity="0.4">
<path d="M73.1377 88C77.7285 88 81.8736 89.892 84.8496 92.9326L96.3496 104.433C96.4297 104.511 96.5094 104.59 96.5879 104.67C96.5797 104.578 96.5596 104.489 96.5596 104.395C96.5596 102.657 97.9812 101.235 99.7188 101.235H164.222C165.154 101.235 165.987 101.652 166.566 102.3C166.655 102.379 166.737 102.462 166.816 102.55C166.905 102.629 166.987 102.712 167.066 102.8C167.155 102.879 167.237 102.962 167.316 103.05C167.405 103.129 167.487 103.212 167.566 103.3C167.655 103.379 167.737 103.462 167.816 103.55C167.905 103.629 167.987 103.712 168.066 103.8C168.155 103.879 168.237 103.962 168.316 104.05C168.405 104.129 168.487 104.212 168.566 104.3C168.655 104.379 168.737 104.462 168.816 104.55C168.905 104.629 168.987 104.712 169.066 104.8C169.155 104.879 169.237 104.962 169.316 105.05C169.405 105.129 169.487 105.212 169.566 105.3C169.655 105.379 169.737 105.462 169.816 105.55C169.905 105.629 169.987 105.712 170.066 105.8C170.155 105.879 170.237 105.962 170.316 106.05C170.405 106.129 170.487 106.212 170.566 106.3C170.655 106.379 170.737 106.462 170.816 106.55C170.905 106.629 170.987 106.712 171.066 106.8C171.155 106.879 171.237 106.962 171.316 107.05C171.405 107.129 171.487 107.212 171.566 107.3C171.655 107.379 171.737 107.462 171.816 107.55C171.905 107.629 171.987 107.712 172.066 107.8C172.155 107.879 172.237 107.962 172.316 108.05C172.405 108.129 172.487 108.212 172.566 108.3C172.655 108.379 172.737 108.462 172.816 108.55C172.905 108.629 172.987 108.712 173.066 108.8C173.155 108.879 173.237 108.962 173.316 109.05C173.405 109.129 173.487 109.212 173.566 109.3C173.655 109.379 173.737 109.462 173.816 109.55C173.905 109.629 173.987 109.712 174.066 109.8C174.155 109.879 174.237 109.962 174.316 110.05C174.405 110.129 174.487 110.212 174.566 110.3C174.655 110.379 174.737 110.462 174.816 110.55C174.905 110.629 174.987 110.712 175.066 110.8C175.155 110.879 175.237 110.962 175.316 111.05C175.405 111.129 175.487 111.212 175.566 111.3C175.655 111.379 175.737 111.462 175.816 111.55C175.905 111.629 175.987 111.712 176.066 111.8C176.155 111.879 176.237 111.962 176.316 112.05C176.405 112.129 176.487 112.212 176.566 112.3C176.655 112.379 176.737 112.462 176.816 112.55C176.905 112.629 176.987 112.712 177.066 112.8C177.155 112.879 177.237 112.962 177.316 113.05C177.405 113.129 177.487 113.212 177.566 113.3C177.655 113.379 177.737 113.462 177.816 113.55C177.905 113.629 177.987 113.712 178.066 113.8C178.155 113.879 178.237 113.962 178.316 114.05C178.405 114.129 178.487 114.212 178.566 114.3C178.655 114.379 178.737 114.462 178.816 114.55C178.905 114.629 178.987 114.712 179.066 114.8C179.155 114.879 179.237 114.962 179.316 115.05C179.405 115.129 179.487 115.212 179.566 115.3C179.655 115.379 179.737 115.462 179.816 115.55C179.905 115.629 179.987 115.712 180.066 115.8C180.155 115.879 180.237 115.962 180.316 116.05C180.405 116.129 180.487 116.212 180.566 116.3C180.655 116.379 180.737 116.462 180.816 116.55C180.905 116.629 180.987 116.712 181.066 116.8C181.155 116.879 181.237 116.962 181.316 117.05C181.405 117.129 181.487 117.212 181.566 117.3C181.655 117.379 181.737 117.462 181.816 117.55C181.905 117.629 181.987 117.712 182.066 117.8C182.155 117.879 182.237 117.962 182.316 118.05C182.405 118.129 182.487 118.212 182.566 118.3C182.655 118.379 182.737 118.462 182.816 118.55C182.905 118.629 182.987 118.712 183.066 118.8C183.155 118.879 183.237 118.962 183.316 119.05C183.405 119.129 183.487 119.212 183.566 119.3C183.655 119.379 183.737 119.462 183.816 119.55C183.905 119.629 183.987 119.712 184.066 119.8C184.155 119.879 184.237 119.962 184.316 120.05C184.405 120.129 184.487 120.212 184.566 120.3C184.655 120.379 184.737 120.462 184.816 120.55C184.905 120.629 184.987 120.712 185.066 120.8C185.155 120.879 185.237 120.962 185.316 121.05C185.405 121.129 185.487 121.212 185.566 121.3C185.655 121.379 185.737 121.462 185.816 121.55C185.905 121.629 185.987 121.712 186.066 121.8C186.155 121.879 186.237 121.962 186.316 122.05C186.405 122.129 186.487 122.212 186.566 122.3C186.655 122.379 186.737 122.462 186.816 122.55C186.905 122.629 186.987 122.712 187.066 122.8C187.155 122.879 187.237 122.962 187.316 123.05C187.405 123.129 187.487 123.212 187.566 123.3C187.655 123.379 187.737 123.462 187.816 123.55C187.905 123.629 187.987 123.712 188.066 123.8C188.155 123.879 188.237 123.962 188.316 124.05C188.405 124.129 188.487 124.212 188.566 124.3C188.655 124.379 188.737 124.462 188.816 124.55C188.905 124.629 188.987 124.712 189.066 124.8C189.155 124.879 189.237 124.962 189.316 125.05C189.405 125.129 189.487 125.212 189.566 125.3C189.655 125.379 189.737 125.462 189.816 125.55C189.905 125.629 189.987 125.712 190.066 125.8C190.155 125.879 190.237 125.962 190.316 126.05C190.405 126.129 190.487 126.212 190.566 126.3C190.655 126.379 190.737 126.462 190.816 126.55C190.905 126.629 190.987 126.712 191.066 126.8C191.155 126.879 191.237 126.962 191.316 127.05C191.405 127.129 191.487 127.212 191.566 127.3C191.655 127.379 191.737 127.462 191.816 127.55C191.905 127.629 191.987 127.712 192.066 127.8C192.155 127.879 192.237 127.962 192.316 128.05C192.405 128.129 192.487 128.212 192.566 128.3C192.655 128.379 192.737 128.462 192.816 128.55C192.905 128.629 192.987 128.712 193.066 128.8C193.155 128.879 193.237 128.962 193.316 129.05C193.405 129.129 193.487 129.212 193.566 129.3C193.655 129.379 193.737 129.462 193.816 129.55C193.905 129.629 193.987 129.712 194.066 129.8C194.155 129.879 194.237 129.962 194.316 130.05C194.405 130.129 194.487 130.212 194.566 130.3C194.655 130.379 194.737 130.462 194.816 130.55C194.905 130.629 194.987 130.712 195.066 130.8C195.155 130.879 195.237 130.962 195.316 131.05C195.405 131.129 195.487 131.212 195.566 131.3C195.655 131.379 195.737 131.462 195.816 131.55C195.905 131.629 195.987 131.712 196.066 131.8C196.155 131.879 196.237 131.962 196.316 132.05C196.405 132.129 196.487 132.212 196.566 132.3C196.655 132.379 196.737 132.462 196.816 132.55C196.905 132.629 196.987 132.712 197.066 132.8C197.155 132.879 197.237 132.962 197.316 133.05C197.405 133.129 197.487 133.212 197.566 133.3C197.655 133.379 197.737 133.462 197.816 133.55C197.905 133.629 197.987 133.712 198.066 133.8C198.155 133.879 198.237 133.962 198.316 134.05C198.405 134.129 198.487 134.212 198.566 134.3C198.655 134.379 198.737 134.462 198.816 134.55C198.905 134.629 198.987 134.712 199.066 134.8C199.155 134.879 199.237 134.962 199.316 135.05C199.405 135.129 199.487 135.212 199.566 135.3C199.655 135.379 199.737 135.462 199.816 135.55C199.905 135.629 199.987 135.712 200.066 135.8C200.155 135.879 200.237 135.962 200.316 136.05C200.405 136.129 200.487 136.212 200.566 136.3C200.655 136.379 200.737 136.462 200.816 136.55C200.905 136.629 200.987 136.712 201.066 136.8C201.155 136.879 201.237 136.962 201.316 137.05C201.405 137.129 201.487 137.212 201.566 137.3C201.655 137.379 201.737 137.462 201.816 137.55C201.905 137.629 201.987 137.712 202.066 137.8C202.155 137.879 202.237 137.962 202.316 138.05C202.405 138.129 202.487 138.212 202.566 138.3C202.655 138.379 202.737 138.462 202.816 138.55C202.905 138.629 202.987 138.712 203.066 138.8C203.155 138.879 203.237 138.962 203.316 139.05C203.405 139.129 203.487 139.212 203.566 139.3C203.655 139.379 203.737 139.462 203.816 139.55C203.905 139.629 203.987 139.712 204.066 139.8C204.155 139.879 204.237 139.962 204.316 140.05C204.405 140.129 204.487 140.212 204.566 140.3C204.655 140.379 204.737 140.462 204.816 140.55C204.905 140.629 204.987 140.712 205.066 140.8C205.155 140.879 205.237 140.962 205.316 141.05C205.405 141.129 205.487 141.212 205.566 141.3C205.655 141.379 205.737 141.462 205.816 141.55C205.905 141.629 205.987 141.712 206.066 141.8C206.155 141.879 206.237 141.962 206.316 142.05C206.405 142.129 206.487 142.212 206.566 142.3C206.655 142.379 206.737 142.462 206.816 142.55C206.905 142.629 206.987 142.712 207.066 142.8C207.155 142.879 207.237 142.962 207.316 143.05C207.405 143.129 207.487 143.212 207.566 143.3C207.655 143.379 207.737 143.462 207.816 143.55C207.905 143.629 207.987 143.712 208.066 143.8C208.155 143.879 208.237 143.962 208.316 144.05C208.405 144.129 208.487 144.212 208.566 144.3C208.655 144.379 208.737 144.462 208.816 144.55C208.905 144.629 208.987 144.712 209.066 144.8C209.138 144.864 209.205 144.93 209.27 145H66.8281L37.6514 115.823C34.7761 112.87 33.0011 108.842 33.001 104.395C33.001 95.3403 40.3403 88.0001 49.3945 88H73.1377Z" fill="#1545BB"/>
</g>
<path d="M73.1375 88H49.3942C40.3399 88 33 95.34 33 104.394C33 113.448 40.3399 120.788 49.3942 120.788H73.1375C82.1918 120.788 89.5317 113.448 89.5317 104.394C89.5317 95.34 82.1918 88 73.1375 88ZM73.1375 118.527C65.3321 118.527 59.0046 112.2 59.0046 104.394C59.0046 96.5888 65.3321 90.2613 73.1375 90.2613C80.9428 90.2613 87.2704 96.5888 87.2704 104.394C87.2704 112.2 80.9429 118.527 73.1375 118.527Z" fill="#5187DF"/>
<path d="M80.0344 99.3062C79.5751 99.3062 79.1954 99.4556 78.8984 99.7547L70.8649 107.829L67.3757 104.322C67.0787 104.023 66.6989 103.873 66.2396 103.873C65.7802 103.873 65.4005 104.023 65.1036 104.322C64.8065 104.621 64.6572 105.001 64.6572 105.463C64.6572 105.926 64.8065 106.306 65.1036 106.605L69.7289 111.254C70.0535 111.58 70.4316 111.743 70.8649 111.743C71.2983 111.743 71.6763 111.58 72.001 111.254L81.1705 102.038C81.4675 101.739 81.6168 101.359 81.6168 100.896C81.6168 100.434 81.4675 100.054 81.1705 99.7546C80.8737 99.4556 80.4938 99.3062 80.0344 99.3062Z" fill="#5187DF"/>
<path d="M164.002 101H98.9978C97.349 101 96 102.35 96 104C96 105.65 97.349 107 98.9978 107H164.002C165.651 107 167 105.65 167 104C167 102.35 165.651 101 164.002 101Z" fill="#5187DF"/>
</svg>
